digitransit-component/packages/digitransit-component-icon/src/assets/citybike.svg

<svg width="24px" height="24px" viewBox="0 0 24 24" version="1.1" xmlns="http://www.w3.org/2000/svg" xmlns:xlink="http://www.w3.org/1999/xlink">
    <title>icon-citybike</title>
    <g stroke="none" stroke-width="1" fill="none" fill-rule="evenodd">
        <g transform="translate(-24.000000, -359.000000)">
            <g transform="translate(0.000000, 209.000000)">
                <g transform="translate(10.000000, 0.000000)">
                    <g transform="translate(14.000000, 150.000000)">
                        <path d="M0,2.96976 C0,1.34976 1.35024,0 2.96976,0 L20.97024,0 C22.65024,0 24,1.34976 24,2.96976 L24,20.96976 C24,22.64976 22.65024,24 20.97024,24 L2.96976,24 C1.35024,24 0,22.64976 0,20.96976 L0,2.96976 Z" id="Fill-1" fill="#888888"></path>
                        <path d="M9.647376,11.12136 L10.664496,13.76952 L7.674096,14.05752 L9.647376,11.12136 Z M15.456816,10.94568 L16.255536,13.03032 C16.574736,13.87464 17.099376,14.68104 17.493456,15.13128 C17.906256,15.61896 18.487536,15.11256 18.131376,14.66232 C17.737296,14.17464 17.305776,13.44312 17.005776,12.67416 L15.557136,8.8476 L16.722096,8.8476 L17.359536,10.46088 C17.453616,10.686 17.585136,10.7796 17.791056,10.7796 L19.347696,10.7796 C19.573296,10.7796 19.723056,10.66728 19.779216,10.4796 L20.567376,8.19144 C20.754576,7.66584 20.117136,7.4412 19.910736,7.89096 C19.291536,9.2604 18.016656,9.07272 17.547696,8.52888 C17.359536,8.30376 17.228496,8.19144 16.984656,8.19144 L15.308496,8.19144 L15.303696,8.178 C15.307536,8.17176 15.311856,8.16552 15.315696,8.15928 C15.666096,7.62504 15.764496,7.44312 15.847536,7.03704 C15.929136,6.64056 15.848016,6.27048 15.617616,5.9916 C15.368976,5.69112 15.000336,5.502 14.550096,5.51112 C13.923696,5.5212 13.441296,6.0228 13.388016,6.08088 C13.235856,6.24456 13.245456,6.50136 13.410096,6.65448 C13.575696,6.80616 13.820496,6.78984 13.984656,6.63288 C14.077776,6.54264 14.324496,6.31224 14.562096,6.30888 C14.764656,6.30312 14.874576,6.39096 14.937456,6.45672 C15.032016,6.55608 15.092976,6.74376 15.046896,6.92136 C15.013296,7.05096 14.974896,7.17384 14.705616,7.60488 L14.704656,7.60392 C14.485776,7.86696 14.377296,8.11128 14.470896,8.37384 L15.144816,10.13208 C13.878096,10.9812 12.937296,12.21432 12.581136,13.80696 C12.329616,13.67256 12.049296,13.63224 11.716656,13.66824 L11.513616,13.68792 L9.308976,7.93896 C9.516336,7.88232 9.754896,7.83432 10.047216,7.81608 L10.291056,7.79736 C10.534896,7.77864 10.722096,7.62888 10.722096,7.40328 C10.722096,7.17864 10.553616,6.99096 10.253616,6.99096 L9.053136,6.99096 C8.171376,6.99096 8.021136,6.97704 7.515216,6.97704 C7.214736,6.97704 7.027536,7.08456 7.027536,7.30968 C7.027536,7.77864 7.646256,8.21016 8.227536,8.21016 C8.327376,8.21016 8.421936,8.19768 8.516976,8.178 L9.291696,10.19592 L8.509296,11.36136 C7.721136,10.7796 6.783696,10.46088 5.827056,10.46088 C4.718736,10.46088 3.681456,10.86504 2.935536,11.48664 C2.911056,11.50728 2.754096,11.6556 2.731536,11.67816 C2.514096,11.8956 2.583696,12.2844 2.887056,12.33864 C2.915376,12.34344 3.069456,12.38664 3.097296,12.39336 C4.249296,12.67128 5.341776,13.37832 6.212496,14.3148 C5.973936,14.47368 5.827056,14.72856 5.827056,14.99976 C5.827056,15.48744 6.145776,15.82536 6.689616,15.88152 L11.585136,16.40664 C12.504336,16.50072 13.254576,16.10664 13.329456,14.98152 L13.348176,14.71848 C13.437456,13.26744 14.195856,11.8692 15.456816,10.94568 L15.456816,10.94568 Z" id="Fill-4" fill="#FFFFFF"></path>
                        <path d="M6.577056,17.663424 C5.076576,17.663424 3.857376,16.462944 3.857376,14.962464 C3.857376,14.493504 3.988896,14.024544 4.270176,13.574304 C4.045056,13.424064 3.763776,13.293024 3.519456,13.198944 C3.200736,13.724544 3.031776,14.362464 3.031776,14.962464 C3.031776,16.913184 4.626816,18.488544 6.577056,18.488544 C7.833696,18.488544 8.959296,17.832384 9.578016,16.819104 L8.583936,16.706784 C8.134176,17.306784 7.402176,17.663424 6.577056,17.663424" id="Fill-6" fill="#FFFFFF"></path>
                        <path d="M17.868768,11.436096 C17.643648,11.436096 17.437248,11.454816 17.249568,11.492256 L17.549568,12.279936 C17.643648,12.261216 17.755968,12.261216 17.868768,12.261216 C19.350048,12.261216 20.569248,13.480416 20.569248,14.962656 C20.569248,16.463136 19.350048,17.663616 17.868768,17.663616 C16.368288,17.663616 15.167808,16.463136 15.167808,14.962656 C15.167808,14.343456 15.374208,13.780896 15.711648,13.330656 L15.374208,12.448896 C14.736288,13.086816 14.323488,13.986816 14.323488,14.962656 C14.323488,16.912896 15.918048,18.488736 17.868768,18.488736 C19.819008,18.488736 21.394848,16.912896 21.394848,14.962656 C21.394848,13.011456 19.819008,11.436096 17.868768,11.436096" id="Fill-8" fill="#FFFFFF"></path>
                    </g>
                </g>
            </g>
        </g>
    </g>
</svg>

<svg xmlns="http://www.w3.org/2000/svg" width="24" height="24" viewBox="0 0 24 24">
 <title>icon-citybike</title>
 <g fill="none" fill-rule="evenodd">
  <path fill="#888" d="M0 2.97C0 1.35 1.35 0 2.97 0h18C22.65 0 24 1.35 24 2.97v18c0 1.68-1.35 3.03-3.03 3.03h-18C1.35 24 0 22.65 0 20.97z"/>
  <path fill="#fff" d="m9.647 11.121 1.017 2.649-2.99.288zm5.81-.175.799 2.084c.319.845.843 1.651 1.237 2.101.413.488.995-.018.638-.469-.394-.487-.825-1.219-1.125-1.988l-1.449-3.826h1.165l.638 1.613c.094.225.225.319.431.319h1.557c.225 0 .375-.113.431-.3l.788-2.289c.188-.525-.45-.75-.656-.3-.62 1.37-1.894 1.182-2.363.638-.188-.225-.32-.338-.563-.338h-1.677l-.004-.013.012-.019c.35-.534.448-.716.532-1.122.081-.396 0-.767-.23-1.045-.249-.3-.618-.49-1.068-.48-.626.01-1.109.51-1.162.569a.406.406 0 0 0 .022.573c.166.152.41.136.575-.021.093-.09.34-.32.577-.324a.47.47 0 0 1 .375.148c.095.1.156.287.11.464-.034.13-.072.253-.341.684l-.001-.001c-.22.263-.328.507-.234.77l.674 1.758c-1.267.85-2.208 2.082-2.564 3.675-.251-.134-.532-.175-.864-.139l-.203.02-2.205-5.749a3.6 3.6 0 0 1 .738-.123l.244-.019c.244-.018.431-.168.431-.394 0-.224-.168-.412-.468-.412h-1.2c-.883 0-1.033-.014-1.539-.014-.3 0-.487.108-.487.333 0 .469.618.9 1.2.9q.148-.001.289-.032l.775 2.018-.783 1.165a4.52 4.52 0 0 0-2.682-.9 4.57 4.57 0 0 0-2.891 1.026c-.025.02-.182.169-.204.191-.218.218-.148.606.155.66.028.005.182.049.21.055 1.152.278 2.245.985 3.115 1.922a.83.83 0 0 0-.385.685c0 .487.319.825.863.882l4.895.525c.92.094 1.67-.3 1.744-1.425l.02-.264c.088-1.45.847-2.849 2.108-3.772"/>
  <path fill="#fff" d="M6.577 17.663c-1.5 0-2.72-1.2-2.72-2.7 0-.47.132-.938.413-1.389a4 4 0 0 0-.75-.375 3.5 3.5 0 0 0-.488 1.763c0 1.951 1.595 3.527 3.545 3.527a3.51 3.51 0 0 0 3.001-1.67l-.994-.112c-.45.6-1.182.956-2.007.956M17.869 11.436a3 3 0 0 0-.62.056l.3.788c.095-.019.207-.019.32-.019 1.481 0 2.7 1.22 2.7 2.702 0 1.5-1.219 2.7-2.7 2.7a2.69 2.69 0 0 1-2.701-2.7c0-.62.206-1.182.544-1.632l-.338-.882a3.58 3.58 0 0 0-1.05 2.514c0 1.95 1.594 3.526 3.545 3.526a3.52 3.52 0 0 0 3.526-3.526 3.52 3.52 0 0 0-3.526-3.527"/>
 </g>
</svg>
